static/img/kroki/2e89c7be826696656e7185071b99a9db.svg

<?xml version="1.0" encoding="us-ascii" standalone="no"?><svg xmlns="http://www.w3.org/2000/svg" xmlns:xlink="http://www.w3.org/1999/xlink" contentStyleType="text/css" height="374px" preserveAspectRatio="none" style="width:716px;height:374px;" version="1.1" viewBox="0 0 716 374" width="716px" zoomAndPan="magnify"><defs/><g><!--class azure_machine_learning_component_version_base--><g id="elem_azure_machine_learning_component_version_base"><rect codeLine="23" fill="#3D176E" height="39.7891" id="azure_machine_learning_component_version_base" rx="2.5" ry="2.5" style="stroke:#000D19;stroke-width:0.5;" width="467" x="242.5" y="167.79"/><ellipse cx="257.5" cy="187.6845" fill="#ADD1B2" rx="11" ry="11" style="stroke:#181818;stroke-width:1.0;"/><path d="M260.4688,193.3252 Q259.8906,193.622 259.25,193.7627 Q258.6094,193.9189 257.9063,193.9189 Q255.4063,193.9189 254.0781,192.2783 Q252.7656,190.622 252.7656,187.497 Q252.7656,184.372 254.0781,182.7158 Q255.4063,181.0595 257.9063,181.0595 Q258.6094,181.0595 259.25,181.2158 Q259.9063,181.372 260.4688,181.6689 L260.4688,184.3877 Q259.8438,183.8095 259.25,183.5439 Q258.6563,183.2627 258.0313,183.2627 Q256.6875,183.2627 256,184.3408 Q255.3125,185.4033 255.3125,187.497 Q255.3125,189.5908 256,190.6689 Q256.6875,191.7314 258.0313,191.7314 Q258.6563,191.7314 259.25,191.4658 Q259.8438,191.1845 260.4688,190.6064 L260.4688,193.3252 Z " fill="#000000"/><text fill="#D9B8FF" font-family="Helvetica" font-size="17" lengthAdjust="spacing" textLength="425" x="276.5" y="193.5698">azure_machine_learning_component_version_base</text></g><!--class azure_machine_learning_workspace_component_version--><g id="elem_azure_machine_learning_workspace_component_version"><rect codeLine="26" fill="#3D176E" height="39.7891" id="azure_machine_learning_workspace_component_version" rx="2.5" ry="2.5" style="stroke:#000D19;stroke-width:0.5;" width="517" x="32.5" y="328.58"/><ellipse cx="47.5" cy="348.4745" fill="#ADD1B2" rx="11" ry="11" style="stroke:#181818;stroke-width:1.0;"/><path d="M50.4688,354.1152 Q49.8906,354.412 49.25,354.5527 Q48.6094,354.7089 47.9063,354.7089 Q45.4063,354.7089 44.0781,353.0683 Q42.7656,351.412 42.7656,348.287 Q42.7656,345.162 44.0781,343.5058 Q45.4063,341.8495 47.9063,341.8495 Q48.6094,341.8495 49.25,342.0058 Q49.9063,342.162 50.4688,342.4589 L50.4688,345.1777 Q49.8438,344.5995 49.25,344.3339 Q48.6563,344.0527 48.0313,344.0527 Q46.6875,344.0527 46,345.1308 Q45.3125,346.1933 45.3125,348.287 Q45.3125,350.3808 46,351.4589 Q46.6875,352.5214 48.0313,352.5214 Q48.6563,352.5214 49.25,352.2558 Q49.8438,351.9745 50.4688,351.3964 L50.4688,354.1152 Z " fill="#000000"/><text fill="#D9B8FF" font-family="Helvetica" font-size="17" lengthAdjust="spacing" textLength="475" x="66.5" y="354.3598">azure_machine_learning_workspace_component_version</text></g><!--class azure_proxy_resource--><g id="elem_azure_proxy_resource"><rect codeLine="29" fill="#3D176E" height="39.7891" id="azure_proxy_resource" rx="2.5" ry="2.5" style="stroke:#000D19;stroke-width:0.5;" width="224" x="364" y="7"/><ellipse cx="379" cy="26.8945" fill="#ADD1B2" rx="11" ry="11" style="stroke:#181818;stroke-width:1.0;"/><path d="M381.9688,32.5352 Q381.3906,32.832 380.75,32.9727 Q380.1094,33.1289 379.4063,33.1289 Q376.9063,33.1289 375.5781,31.4883 Q374.2656,29.832 374.2656,26.707 Q374.2656,23.582 375.5781,21.9258 Q376.9063,20.2695 379.4063,20.2695 Q380.1094,20.2695 380.75,20.4258 Q381.4063,20.582 381.9688,20.8789 L381.9688,23.5977 Q381.3438,23.0195 380.75,22.7539 Q380.1563,22.4727 379.5313,22.4727 Q378.1875,22.4727 377.5,23.5508 Q376.8125,24.6133 376.8125,26.707 Q376.8125,28.8008 377.5,29.8789 Q378.1875,30.9414 379.5313,30.9414 Q380.1563,30.9414 380.75,30.6758 Q381.3438,30.3945 381.9688,29.8164 L381.9688,32.5352 Z " fill="#000000"/><text fill="#D9B8FF" font-family="Helvetica" font-size="17" lengthAdjust="spacing" textLength="182" x="398" y="32.7798">azure_proxy_resource</text></g><!--class microsoft_resource--><g id="elem_microsoft_resource"><rect codeLine="32" fill="#3D176E" height="39.7891" id="microsoft_resource" rx="2.5" ry="2.5" style="stroke:#000D19;stroke-width:0.5;" width="200" x="7" y="167.79"/><ellipse cx="22" cy="187.6845" fill="#ADD1B2" rx="11" ry="11" style="stroke:#181818;stroke-width:1.0;"/><path d="M24.9688,193.3252 Q24.3906,193.622 23.75,193.7627 Q23.1094,193.9189 22.4063,193.9189 Q19.9063,193.9189 18.5781,192.2783 Q17.2656,190.622 17.2656,187.497 Q17.2656,184.372 18.5781,182.7158 Q19.9063,181.0595 22.4063,181.0595 Q23.1094,181.0595 23.75,181.2158 Q24.4063,181.372 24.9688,181.6689 L24.9688,184.3877 Q24.3438,183.8095 23.75,183.5439 Q23.1563,183.2627 22.5313,183.2627 Q21.1875,183.2627 20.5,184.3408 Q19.8125,185.4033 19.8125,187.497 Q19.8125,189.5908 20.5,190.6689 Q21.1875,191.7314 22.5313,191.7314 Q23.1563,191.7314 23.75,191.4658 Q24.3438,191.1845 24.9688,190.6064 L24.9688,193.3252 Z " fill="#000000"/><text fill="#D9B8FF" font-family="Helvetica" font-size="17" lengthAdjust="spacing" textLength="158" x="41" y="193.5698">microsoft_resource</text></g><!--class resource--><g id="elem_resource"><rect codeLine="35" fill="#3D176E" height="39.7891" id="resource" rx="2.5" ry="2.5" style="stroke:#000D19;stroke-width:0.5;" width="113" x="50.5" y="7"/><ellipse cx="65.5" cy="26.8945" fill="#ADD1B2" rx="11" ry="11" style="stroke:#181818;stroke-width:1.0;"/><path d="M68.4688,32.5352 Q67.8906,32.832 67.25,32.9727 Q66.6094,33.1289 65.9063,33.1289 Q63.4063,33.1289 62.0781,31.4883 Q60.7656,29.832 60.7656,26.707 Q60.7656,23.582 62.0781,21.9258 Q63.4063,20.2695 65.9063,20.2695 Q66.6094,20.2695 67.25,20.4258 Q67.9063,20.582 68.4688,20.8789 L68.4688,23.5977 Q67.8438,23.0195 67.25,22.7539 Q66.6563,22.4727 66.0313,22.4727 Q64.6875,22.4727 64,23.5508 Q63.3125,24.6133 63.3125,26.707 Q63.3125,28.8008 64,29.8789 Q64.6875,30.9414 66.0313,30.9414 Q66.6563,30.9414 67.25,30.6758 Q67.8438,30.3945 68.4688,29.8164 L68.4688,32.5352 Z " fill="#000000"/><text fill="#D9B8FF" font-family="Helvetica" font-size="17" lengthAdjust="spacing" textLength="71" x="84.5" y="32.7798">resource</text></g><!--reverse link azure_proxy_resource to azure_machine_learning_component_version_base--><g id="link_azure_proxy_resource_azure_machine_learning_component_version_base"><path codeLine="38" d="M476,65.05 C476,95.57 476,136.9 476,167.46 " fill="none" id="azure_proxy_resource-backto-azure_machine_learning_component_version_base" style="stroke:#FFAF37;stroke-width:2.0;"/><polygon fill="none" points="476,47.05,470,65.05,482,65.05,476,47.05" style="stroke:#FFAF37;stroke-width:2.0;"/></g><!--reverse link azure_machine_learning_component_version_base to azure_machine_learning_workspace_component_version--><g id="link_azure_machine_learning_component_version_base_azure_machine_learning_workspace_component_version"><path codeLine="39" d="M440.0226,219.565 C404.4726,250.085 349,297.69 313.39,328.25 " fill="none" id="azure_machine_learning_component_version_base-backto-azure_machine_learning_workspace_component_version" style="stroke:#FFAF37;stroke-width:2.0;"/><polygon fill="none" points="453.68,207.84,436.1143,215.0125,443.9309,224.1175,453.68,207.84" style="stroke:#FFAF37;stroke-width:2.0;"/></g><!--reverse link microsoft_resource to azure_machine_learning_workspace_component_version--><g id="link_microsoft_resource_azure_machine_learning_workspace_component_version"><path codeLine="40" d="M142.8179,219.5992 C178.1879,250.1192 233.31,297.69 268.73,328.25 " fill="none" id="microsoft_resource-backto-azure_machine_learning_workspace_component_version" style="stroke:#FFAF37;stroke-width:2.0;"/><polygon fill="none" points="129.19,207.84,138.8982,224.1419,146.7377,215.0566,129.19,207.84" style="stroke:#FFAF37;stroke-width:2.0;"/></g><!--reverse link resource to microsoft_resource--><g id="link_resource_microsoft_resource"><path codeLine="41" d="M107,65.05 C107,95.57 107,136.9 107,167.46 " fill="none" id="resource-backto-microsoft_resource" style="stroke:#FFAF37;stroke-width:2.0;"/><polygon fill="none" points="107,47.05,101,65.05,113,65.05,107,47.05" style="stroke:#FFAF37;stroke-width:2.0;"/></g><!--SRC=[dP91Ry8m38Nl_HMHE2F1q0P8km3Ij5tGD7QlqiIXKPkuSb8ORFllAsERIbEAsDN-_FoUvLHBO60AlsC6J0Ba8fTfMt3YXis8SBl078drbE9gD6us7z3wYy2I6s2Fa6_0Qy6Rn6kgHMR1ENPJQysvoDQ4fPL7UK_Skge5rjUeHSwTctbFEYazrCp8QJ9HgaasHNiZEHpVGO0XIQ0VP30OoE6qYLnSrPdxZrZfFR1X_MXBz13O35PyKvqk3qJDP13qjt_MupENKjirkwtLNewUo0ATr5SfbxWzq8hdhhx6UI10lojW4QI2wKIgSIlyT0wEnE5qZEzBWjXmaMeBSGwSRBKz5cWAjDMBn9lgaJNQEE4Es7iKVNOFRf6owhi4X1BXT47ujei979OaJjID5eGEbM_jdjPQjUu_-lt-TUcYwsxHkQ7Z355BjdzhDHH2wUWB]--></g></svg>

<svg xmlns="http://www.w3.org/2000/svg" width="716" height="374" viewBox="0 0 716 374"><rect width="467" height="39.789" x="242.5" y="167.79" fill="#3D176E" rx="2.5" ry="2.5" style="stroke:#000d19;stroke-width:.5"/><circle cx="257.5" cy="187.685" r="11" fill="#ADD1B2" style="stroke:#181818;stroke-width:1"/><path d="M260.469 193.325q-.578.297-1.219.438-.64.156-1.344.156-2.5 0-3.828-1.64-1.312-1.657-1.312-4.782t1.312-4.781q1.328-1.656 3.828-1.656.703 0 1.344.156.656.156 1.219.453v2.719q-.625-.578-1.219-.844-.594-.281-1.219-.281-1.344 0-2.031 1.078-.687 1.062-.687 3.156t.687 3.172q.688 1.062 2.031 1.062.625 0 1.219-.265.594-.281 1.219-.86z"/><text x="276.5" y="193.57" fill="#D9B8FF" font-family="Helvetica" font-size="17" textLength="425">azure_machine_learning_component_version_base</text><rect width="517" height="39.789" x="32.5" y="328.58" fill="#3D176E" rx="2.5" ry="2.5" style="stroke:#000d19;stroke-width:.5"/><circle cx="47.5" cy="348.474" r="11" fill="#ADD1B2" style="stroke:#181818;stroke-width:1"/><path d="M50.469 354.115q-.578.297-1.219.438-.64.156-1.344.156-2.5 0-3.828-1.64-1.312-1.657-1.312-4.782t1.312-4.781q1.328-1.656 3.828-1.656.703 0 1.344.156.656.156 1.219.453v2.719q-.625-.579-1.219-.844-.594-.281-1.219-.281-1.343 0-2.031 1.078-.687 1.062-.687 3.156t.687 3.172q.688 1.062 2.031 1.062.625 0 1.219-.265.594-.281 1.219-.86z"/><text x="66.5" y="354.36" fill="#D9B8FF" font-family="Helvetica" font-size="17" textLength="475">azure_machine_learning_workspace_component_version</text><rect width="224" height="39.789" x="364" y="7" fill="#3D176E" rx="2.5" ry="2.5" style="stroke:#000d19;stroke-width:.5"/><circle cx="379" cy="26.895" r="11" fill="#ADD1B2" style="stroke:#181818;stroke-width:1"/><path d="M381.969 32.535q-.578.297-1.219.438-.64.156-1.344.156-2.5 0-3.828-1.64-1.312-1.657-1.312-4.782t1.312-4.781q1.328-1.656 3.828-1.656.703 0 1.344.156.656.156 1.219.453v2.719q-.625-.578-1.219-.844-.594-.281-1.219-.281-1.344 0-2.031 1.078-.687 1.062-.687 3.156t.687 3.172q.688 1.062 2.031 1.062.625 0 1.219-.265.594-.281 1.219-.86z"/><text x="398" y="32.78" fill="#D9B8FF" font-family="Helvetica" font-size="17" textLength="182">azure_proxy_resource</text><rect width="200" height="39.789" x="7" y="167.79" fill="#3D176E" rx="2.5" ry="2.5" style="stroke:#000d19;stroke-width:.5"/><circle cx="22" cy="187.685" r="11" fill="#ADD1B2" style="stroke:#181818;stroke-width:1"/><path d="M24.969 193.325q-.578.297-1.219.438-.64.156-1.344.156-2.5 0-3.828-1.64-1.312-1.657-1.312-4.782t1.312-4.781q1.328-1.656 3.828-1.656.703 0 1.344.156.656.156 1.219.453v2.719q-.625-.578-1.219-.844-.594-.281-1.219-.281-1.343 0-2.031 1.078-.687 1.062-.687 3.156t.687 3.172q.688 1.062 2.031 1.062.625 0 1.219-.265.594-.281 1.219-.86z"/><text x="41" y="193.57" fill="#D9B8FF" font-family="Helvetica" font-size="17" textLength="158">microsoft_resource</text><rect width="113" height="39.789" x="50.5" y="7" fill="#3D176E" rx="2.5" ry="2.5" style="stroke:#000d19;stroke-width:.5"/><circle cx="65.5" cy="26.895" r="11" fill="#ADD1B2" style="stroke:#181818;stroke-width:1"/><path d="M68.469 32.535q-.578.297-1.219.438-.64.156-1.344.156-2.5 0-3.828-1.64-1.312-1.657-1.312-4.782t1.312-4.781q1.328-1.656 3.828-1.656.703 0 1.344.156.656.156 1.219.453v2.719q-.625-.578-1.219-.844-.594-.281-1.219-.281-1.344 0-2.031 1.078-.687 1.062-.687 3.156T64 29.879q.688 1.062 2.031 1.062.625 0 1.219-.265.594-.281 1.219-.86z"/><text x="84.5" y="32.78" fill="#D9B8FF" font-family="Helvetica" font-size="17" textLength="71">resource</text><path fill="none" d="M476 65.05v102.41m0-120.41-6 18h12z" style="stroke:#ffaf37;stroke-width:2"/><g fill="none"><path d="M440.023 219.565C404.473 250.085 349 297.69 313.39 328.25" style="stroke:#ffaf37;stroke-width:2"/><path d="m453.68 207.84-17.566 7.172 7.817 9.106z" style="stroke:#ffaf37;stroke-width:2"/></g><path fill="none" d="M142.818 219.6c35.37 30.52 90.492 78.09 125.912 108.65M129.19 207.84l9.708 16.302 7.84-9.085zM107 65.05v102.41m0-120.41-6 18h12z" style="stroke:#ffaf37;stroke-width:2"/></svg>
